!!!OTL: De sublimi arce poli
**kern
*staff1
=--
*clefC1
*k[]
*met(c)
*M4/4
1cc
1dd
=-
1cc
1a
=-
1cc
1b
=-
1cc
1a
=-
1g
2g
2b
=-
1g
1f
=-
!!linebreak:original
1cc
1b
=-
1cc
1a
=-
1g
1g
=-
1.cc
2b
=-
1a
1g
=-
0f
=-=
*-
!!title: @{OTL}, @{GTL}, ed. @{ENC}
!!!pag:
!!!GTL: Hymnbook C
!!!EFL: 
!!!YEM: Creative Commons CC/BY/NC/SA 4.0
!!!ENC: Marcin Konik
!!!END: 2015-0m-dd
!!!EED: Marcin Konik
!!!EEV: 
!!!ONB: Encoded in vim by Marcin Konik
!!!CharacterEncoding: utf-8
!!!RDF**kern: l=long note in original notation
!!!RDF**kern: i=editorial accidental
!!muse2ps: z14jc180F
!!!COM: Anonim
!!!CDT: [?]
!!!TXO: Polish
!!!ODT: 
!!!GTL: Hymnbook C
!!!ARL: Opactwo św. Wojciecha, Staniątki 
!!!voices:	1
